X: 3082
T: The MILL BURN
Q:"Reel."
R: Reel.
%R:reel
B: James Kerr "Merry Melodies" v.3 p.11 #82
Z: 2016 John Chambers <jc:trillian.mit.edu>
M: C
L: 1/8
K: A
uE |\
A2(cA) GABc | dFBA GBEG |\
A2(cA) Bcdf | ecdB A/A/A A ::\
B |\
Aaga fedc |
dFBA GBEG |\
[1 Aaga fedc | dfec A/A/A A :|\
[2 AcBd cedf | ecdB A/A/A A |]

%%sep 1 1 500
%%sep 1 1 500

